src/main/resources/icons/CloudConfigIcons/icons/connected_dark.svg

<svg xmlns="http://www.w3.org/2000/svg" width="16" height="16" viewBox="0 0 16 16">
  <g fill="none" fill-rule="evenodd">
    <path fill="#AFB1B3" d="M7.5,1 C9.775,1 11.66875,2.61875 12.09375,4.775 C13.71875,4.8875 15,6.225 15,7.875 C15,8.10026015 14.9761264,8.31997821 14.9307729,8.53176033 C14.2176747,8.06821825 13.367938,7.8 12.4555555,7.8 C10.41161,7.8 8.68205985,9.14608686 8.10504166,11.0001241 L3.75,11 C1.68125,11 0,9.31875 0,7.25 C0,5.31875 1.4625,3.725 3.34375,3.525 C4.125,2.025 5.69375,1 7.5,1 Z"/>
    <path fill="#AFB1B3" d="M12.4878456,8.88888889 C12.7383061,8.88888889 12.982624,8.91534324 13.2181885,8.96562566 L13.3157248,9.94615373 C13.643646,10.0575717 13.9420979,10.2333537 14.1962254,10.4585571 L15.0896021,10.0539838 C15.4152536,10.4175168 15.6666783,10.8496499 15.8198598,11.3262251 L15.0237574,11.9014175 C15.0562584,12.0660985 15.0733015,12.2363778 15.0733015,12.4106612 C15.0733015,12.5848897 15.0562692,12.7551168 15.0237881,12.9197494 L15.8198598,13.495097 C15.6665409,13.9720995 15.4148027,14.4045801 15.0887261,14.7683159 L14.1962254,14.3627652 C13.9420979,14.5879686 13.643646,14.7637506 13.3157248,14.8751686 L13.2181885,15.8556964 C12.982624,15.9059789 12.7383061,15.9324332 12.4878456,15.9324332 C12.2373851,15.9324332 11.9930671,15.9059789 11.7575026,15.8556964 L11.6599665,14.8751686 C11.3320454,14.7637506 11.0335934,14.5879686 10.779466,14.3627652 L9.88696505,14.7683159 C9.56088845,14.4045801 9.30915019,13.9720995 9.15583136,13.495097 L9.95210157,12.9207532 C9.91949153,12.7558087 9.90238992,12.5852439 9.90238992,12.4106612 C9.90238992,12.2363778 9.91943294,12.0660985 9.951934,11.9014175 L9.15583136,11.3262251 C9.30901286,10.8496499 9.56043756,10.4175168 9.88608902,10.0539838 L10.779466,10.4585571 C11.0335934,10.2333537 11.3320454,10.0575717 11.6599665,9.94615373 L11.7575026,8.96562566 C11.9930671,8.91534324 12.2373851,8.88888889 12.4878456,8.88888889 Z M12.4878454,11.1644954 C11.8036397,11.1644954 11.2489813,11.7224707 11.2489813,12.4107682 C11.2489813,13.0990656 11.8036397,13.6570409 12.4878454,13.6570409 C13.1720512,13.6570409 13.7267096,13.0990656 13.7267096,12.4107682 C13.7267096,11.7224707 13.1720512,11.1644954 12.4878454,11.1644954 Z"/>
  </g>
</svg>

<svg xmlns="http://www.w3.org/2000/svg" width="16" height="16" viewBox="0 0 16 16"><rect id="frame" width="16" height="16" fill="none"/><g fill="#AFB1B3" fill-rule="evenodd"><path d="M7.5 1a4.681 4.681 0 0 1 4.594 3.775 3.11 3.11 0 0 1 2.837 3.757A4.558 4.558 0 0 0 8.105 11H3.75A3.753 3.753 0 0 1 0 7.25a3.746 3.746 0 0 1 3.344-3.725A4.685 4.685 0 0 1 7.5 1z"/><path d="M12.488 8.889c.25 0 .495.026.73.077l.098.98c.328.112.626.287.88.513l.894-.405c.325.364.577.796.73 1.272l-.796.575a2.628 2.628 0 0 1 0 1.019l.796.575c-.153.477-.405.91-.731 1.273l-.893-.405a2.58 2.58 0 0 1-.88.512l-.098.98a3.496 3.496 0 0 1-1.46 0l-.098-.98a2.58 2.58 0 0 1-.88-.512l-.893.405a3.523 3.523 0 0 1-.731-1.273l.796-.574a2.628 2.628 0 0 1 0-1.02l-.796-.575c.153-.476.404-.908.73-1.272l.893.405a2.58 2.58 0 0 1 .881-.513l.098-.98c.235-.05.48-.077.73-.077zm0 2.275c-.684 0-1.239.558-1.239 1.247 0 .688.555 1.246 1.239 1.246s1.239-.558 1.239-1.246c0-.689-.555-1.247-1.24-1.247z"/></g></svg>
